app/quadraticlands/templates/quadraticlands/_inlinesvg/gtcwallet.svg

<svg width="64" height="64" viewBox="0 0 64 64" fill="none" xmlns="http://www.w3.org/2000/svg">
<path d="M40 35C41.6569 35 43 33.6569 43 32C43 30.3431 41.6569 29 40 29C38.3431 29 37 30.3431 37 32C37 33.6569 38.3431 35 40 35Z" fill="#F579A6"/>
<path d="M33 30V37C33 37.6 33.4 38 34 38H44C44.6 38 45 38.4 45 39V44C45 44.6 44.6 45 44 45H20C19.4 45 19 44.6 19 44V20C19 19.4 19.4 19 20 19H44C44.6 19 45 19.4 45 20V25C45 25.6 44.6 26 44 26H34C33.4 26 33 26.4 33 27V32" stroke="#7AFFF7" stroke-width="2" stroke-miterlimit="10" stroke-linecap="round" stroke-linejoin="round"/>
<path d="M53.5747 37.4252L59 32L53.5117 26.5117" stroke="#F579A6" stroke-width="2" stroke-miterlimit="10" stroke-linecap="round" stroke-linejoin="round"/>
<path d="M10.4883 26.5117L5.00003 32L10.4883 37.4883" stroke="#F579A6" stroke-width="2" stroke-miterlimit="10" stroke-linecap="round" stroke-linejoin="round"/>
<path d="M37.4883 10.4883L32 5.00002L26.5117 10.4883" stroke="#F579A6" stroke-width="2" stroke-miterlimit="10" stroke-linecap="round" stroke-linejoin="round"/>
<path d="M26.5117 53.5117L32 59L37.4883 53.5117" stroke="#F579A6" stroke-width="2" stroke-miterlimit="10" stroke-linecap="round" stroke-linejoin="round"/>
<path d="M48.3 60H60V48" stroke="#F579A6" stroke-width="2" stroke-miterlimit="10" stroke-linecap="round" stroke-linejoin="round"/>
<path d="M16 4H4V16" stroke="#F579A6" stroke-width="2" stroke-miterlimit="10" stroke-linecap="round" stroke-linejoin="round"/>
<path d="M60 16V4H48" stroke="#F579A6" stroke-width="2" stroke-miterlimit="10" stroke-linecap="round" stroke-linejoin="round"/>
<path d="M4 48V60H16" stroke="#F579A6" stroke-width="2" stroke-miterlimit="10" stroke-linecap="round" stroke-linejoin="round"/>
</svg>

<?xml version="1.0" encoding="utf-8"?>
<!-- Generator: Adobe Illustrator 25.0.1, SVG Export Plug-In . SVG Version: 6.00 Build 0)  -->
<svg version="1.1" id="Layer_1" xmlns="http://www.w3.org/2000/svg" xmlns:xlink="http://www.w3.org/1999/xlink" x="0px" y="0px"
	 width="64px" height="64px" viewBox="0 0 64 64" style="enable-background:new 0 0 64 64;" xml:space="preserve">
<style type="text/css">
	.st0{fill:#F35890;}
	.st1{fill:none;stroke:#02E2AC;stroke-width:2;stroke-linecap:round;stroke-linejoin:round;stroke-miterlimit:10;}
	.st2{fill:none;stroke:#F35890;stroke-width:2;stroke-linecap:round;stroke-linejoin:round;stroke-miterlimit:10;}
</style>
<path class="st0" d="M40,35c1.7,0,3-1.3,3-3c0-1.7-1.3-3-3-3s-3,1.3-3,3C37,33.7,38.3,35,40,35z"/>
<path class="st1" d="M33,30v7c0,0.6,0.4,1,1,1h10c0.6,0,1,0.4,1,1v5c0,0.6-0.4,1-1,1H20c-0.6,0-1-0.4-1-1V20c0-0.6,0.4-1,1-1h24
	c0.6,0,1,0.4,1,1v5c0,0.6-0.4,1-1,1H34c-0.6,0-1,0.4-1,1v5"/>
<path class="st2" d="M53.6,37.4L59,32l-5.5-5.5"/>
<path class="st2" d="M10.5,26.5L5,32l5.5,5.5"/>
<path class="st2" d="M37.5,10.5L32,5l-5.5,5.5"/>
<path class="st2" d="M26.5,53.5L32,59l5.5-5.5"/>
<path class="st1" d="M48.3,60H60V48"/>
<path class="st1" d="M16,4H4v12"/>
<path class="st1" d="M60,16V4H48"/>
<path class="st1" d="M4,48v12h12"/>
</svg>
